X:1
T:Title
%%score { ( 1 3 ) | ( 2 4 ) }
L:1/8
M:4/2
K:Bb
V:1 treble nm="Grand Piano"
V:3 treble 
V:2 bass 
V:4 bass 
V:1
 z8 z4[Q:1/4=196] [DF]4 | [DG]4 [DF]4 [DB]6 [DB]2 | [EA]4 [A,EG]4 [A,F]4 [B,F]4 | %3
 [CFe]4 [DFd]4 [EGc]6 [CG]2 | [CFA]4 [DFB]4 [CFA]4 [B,F]4 | [B,FG]4 [A,EG]4 [B,EF]4 [B,DB]4 | %6
 E4- [CE]2 E2 D4 D4 | G8 F8 |[M:6/4] [DF]12 |] %9
V:2
 z8 z4 [B,,B,]4 | [B,,B,]4 [B,,B,]4 [B,,F,]6 [B,,F,]2 | [C,E,]4 C,4 D,4 D,4 | A,,4 B,,4 E,6 E,2 | %4
 F,4 F,4 F,4 D,4 | E,4 E,4 B,,4 G,,4 | z4 A,2 [C,G,B,]2 [D,^F,A,]4 [G,B,]4 | [E,B,C]8 [F,A,C]8 | %8
[M:6/4] [B,,B,]12 |] %9
V:3
 x16 | x16 | x16 | x16 | x16 | x16 | [B,D]4 z4 z8 | x16 |[M:6/4] x12 |] %9
V:4
 x16 | x16 | x16 | x16 | x16 | x16 | C,8 z8 | x16 |[M:6/4] x12 |] %9

